X: 2
P: The Boys of Bluehill
R: Hornpipe
O: Trad
Z: John Chambers <jc@trillian.mit.edu>
N: Kennedy p.
N: Allan's 74
N: Cranitch 73 & 75
N: O'Neill's p.197
N: Brody p.54
M: C|
L: 1/8
K: D
|: dB \
| "D"BA FA DA FA | "G"BA (3Bcd "A7"e2 de | "D"fa gf "A7"eg fe | "D"df ed "G"Bc dB |
| "D"BA FA DA FA | "G"BA (3Bcd "A7"e2 de | "D"fa gf "A7"eg fe | "D"d2 f2 "D"d2 :|
|: fg \
| "D"af df a2 gf |"Em"ef   ga  "A7"b2 ag | "D"fa gf "A7"eg fe | "D"df ed "G"Bc dB |
| "D"BA FA DA FA | "G"BA (3Bcd "A7"e2 de | "D"fa gf "A7"eg fe | "D"d2 f2 "D"d2 :|
